X: 23324
T: Legacy, The
R: jig
M: 6/8
K: Gmajor
|:GAG GDB,|ded dBG|G2A BAB|E2FG3:|
GBdg2g|fede2e|GBdg2g|fede2f|
g2gf2B|c2e dBG|G2A BAB|E2FG3||

